X: 20
T: Three Flowers, The
I: Three Flowers, The	W-10	G	waltz
C: W-10
M: 3/4
Z: Transcribed to abc by Mary Lou Knack
R: waltz
K: G
e2| "G"d4 d2| B4 g2| "D"f4 f2| A4- AB| c4 A2| F4 A2| "G"G6-| G6|
    "G"d4 d2| "C"e4 g2| "D"a6| b4 a2| "G"g4 e2| "D"d4 e2| "G"g6-| g6|]
"G"d4 d2| "C"e4 g2| "D"a6| b4 a2| "G"g4 e2| "D"d4 e2| "G"g6-| g2 f2 e2|
"G"d4 d2| B4 g2| "D"f4 f2| A4- AB| c4 A2| F4 A2| "G"G6-| G4|]
% %text 9/1/98 For use only by Roaring Jelly members

#include "LeftHeader.h"
% ---------- page 10 ----------

